public/icons/antidote-logo-full.svg

<svg width="176" height="48" viewBox="0 0 176 48" fill="none" xmlns="http://www.w3.org/2000/svg">
<circle cx="112.75" cy="23.75" r="20.75" stroke="white" stroke-width="6"/>
<rect x="105.689" y="17.9729" width="5.13514" height="14.1216" rx="2.56757" fill="white"/>
<rect x="114.676" y="15.4055" width="5.13514" height="14.1216" rx="2.56757" fill="white"/>
<path d="M13.0462 7.11197L14.3462 6.69597C15.5248 6.69597 16.1142 8.25597 16.1142 11.376L17.7262 23.388L17.9342 23.596L23.9142 21.412C24.7115 21.412 25.1448 22.0186 25.2142 23.232C25.2142 24.1333 23.0128 25.2253 18.6102 26.508L18.4022 26.612V26.82C18.4022 27.548 19.5462 31.344 21.8342 38.208V38.312C21.8342 38.9706 21.2968 39.5253 20.2222 39.976C19.2168 39.976 18.5582 38.78 18.2462 36.388C17.4488 34.6546 16.4782 31.7946 15.3342 27.808H15.1262C10.5848 28.744 8.31417 29.5413 8.31417 30.2C5.81817 35.608 3.92883 38.312 2.64617 38.312C1.91817 38.312 1.48483 37.844 1.34617 36.908C1.34617 36.076 2.26483 34.4466 4.10217 32.02L4.93417 30.2H3.63417L2.64617 30.408C1.3635 30.096 0.722168 29.4373 0.722168 28.432C1.24217 27.2186 2.00483 26.612 3.01017 26.612L4.31017 27.132C6.2515 27.132 7.22217 26.4213 7.22217 25C8.99017 20.84 10.9315 14.8773 13.0462 7.11197ZM13.5142 16.576L10.4462 25.832C13.2888 25.2773 14.7102 24.74 14.7102 24.22C14.1902 19.124 13.7915 16.576 13.5142 16.576Z" fill="white"/>
<path d="M33.5175 20.476C36.4642 20.7186 37.9375 22.1573 37.9375 24.792L38.0415 25.468L37.9375 33.58C37.9375 34.516 38.4748 35.7813 39.5495 37.376V37.48C39.2722 38.4853 38.7695 38.988 38.0415 38.988C35.8922 38.0866 34.8175 36.18 34.8175 33.268V32.592L34.6615 32.488L34.8175 32.28V32.176L34.9735 25C34.9735 23.9946 34.5402 23.492 33.6735 23.492H33.0495C31.3162 24.1853 30.4495 27.9813 30.4495 34.88C30.4495 37.272 29.8428 38.468 28.6295 38.468C27.6935 38.468 27.2082 37.8786 27.1735 36.7V31.5C27.1735 24.7746 27.7628 21.412 28.9415 21.412L29.4615 21.256L30.5535 21.412C31.4895 20.788 32.4775 20.476 33.5175 20.476Z" fill="white"/>
<path d="M47.3154 6.43597C48.2861 6.64398 48.7714 7.12931 48.7714 7.89197L48.4594 10.18V10.856C48.4594 12.3813 48.6327 13.9933 48.9794 15.692H49.0834C53.1047 14.4786 55.6007 13.872 56.5714 13.872C57.5767 14.1493 58.0794 14.652 58.0794 15.38C58.0794 16.5586 56.8834 17.148 54.4914 17.148L49.0834 19.072C49.0834 23.752 49.5861 30.1133 50.5914 38.156C50.3834 39.092 49.8807 39.56 49.0834 39.56H48.9794C47.7661 39.56 47.1594 38 47.1594 34.88C46.7087 32.5573 46.3274 27.5133 46.0154 19.748H45.0794C41.8207 19.54 40.1914 18.7773 40.1914 17.46C40.1914 17.0786 40.5554 16.6106 41.2834 16.056H41.8034L44.1954 16.68H45.8594L45.3914 10.18C45.3914 7.68397 46.0327 6.43597 47.3154 6.43597Z" fill="white"/>
<path d="M60.2878 10.908C61.6051 11.1853 62.2638 11.7746 62.2638 12.676C61.9171 13.6466 61.3624 14.132 60.5998 14.132C59.3171 13.8893 58.6758 13.248 58.6758 12.208C59.0224 11.3413 59.5598 10.908 60.2878 10.908ZM62.2638 18.188C62.8184 18.188 63.2864 18.6906 63.6678 19.696L63.1998 23.388V25.832C63.1998 28.6746 63.6851 32.4013 64.6558 37.012C64.3091 37.6706 63.7198 38 62.8878 38C61.4664 38 60.5304 33.84 60.0798 25.52V23.7C60.0798 20.0253 60.8078 18.188 62.2638 18.188Z" fill="white"/>
<path d="M79.5517 9.45198C80.1411 9.45198 80.6784 10.0066 81.1637 11.116L78.8757 25.572V29.628C78.8757 33.8573 79.5344 35.972 80.8517 35.972C81.7184 36.388 82.1517 36.9426 82.1517 37.636C82.1517 38.4333 81.4584 38.9013 80.0717 39.04C78.5464 39.04 77.3504 37.636 76.4837 34.828H75.9637C74.6811 37.636 73.1211 39.04 71.2837 39.04C69.1344 39.04 67.8344 37.4106 67.3837 34.152C67.3837 30.3733 69.9144 26.3693 74.9757 22.14C75.9811 22.14 76.4837 20.736 76.4837 17.928C77.2464 12.2773 78.2691 9.45198 79.5517 9.45198ZM70.4517 33.736V35.14L71.2837 35.972H71.5957C72.7051 35.972 74.0051 32.6266 75.4957 25.936H75.1837C72.0291 29.0906 70.4517 31.6906 70.4517 33.736Z" fill="white"/>
<path d="M149.124 6.43597C150.095 6.64398 150.58 7.12931 150.58 7.89197L150.268 10.18V10.856C150.268 12.3813 150.441 13.9933 150.788 15.692H150.892C154.913 14.4786 157.409 13.872 158.38 13.872C159.385 14.1493 159.888 14.652 159.888 15.38C159.888 16.5586 158.692 17.148 156.3 17.148L150.892 19.072C150.892 23.752 151.395 30.1133 152.4 38.156C152.192 39.092 151.689 39.56 150.892 39.56H150.788C149.575 39.56 148.968 38 148.968 34.88C148.517 32.5573 148.136 27.5133 147.824 19.748H146.888C143.629 19.54 142 18.7773 142 17.46C142 17.0786 142.364 16.6106 143.092 16.056H143.612L146.004 16.68H147.668L147.2 10.18C147.2 7.68397 147.841 6.43597 149.124 6.43597Z" fill="white"/>
<path d="M166.152 19.332C167.539 19.3666 169.879 21.7933 173.172 26.612L173.276 27.496C173.276 28.4666 170.902 29.212 166.152 29.732L165.996 29.888V30.096C166.724 33.216 167.487 34.776 168.284 34.776H168.908C170.018 34.776 171.699 33.58 173.952 31.188H174.264C174.958 31.188 175.495 31.6906 175.876 32.696C175.876 33.528 174.42 34.9666 171.508 37.012C170.746 37.4626 169.827 37.792 168.752 38C165.944 38 163.986 35.3653 162.876 30.096C161.282 29.8533 160.484 29.1946 160.484 28.12C160.484 27.3573 161.074 26.8546 162.252 26.612V26.82L162.772 26.612V25.312C162.772 21.3253 163.899 19.332 166.152 19.332ZM166.464 23.076H165.996L165.788 25V26.612H165.996C167.938 26.5426 168.908 26.3346 168.908 25.988C168.007 24.636 167.192 23.6653 166.464 23.076Z" fill="white"/>
</svg>

<svg width="176" height="48" fill="none" xmlns="http://www.w3.org/2000/svg"><circle cx="112.8" cy="23.8" r="20.8" stroke="#fff" stroke-width="6"/><rect x="105.7" y="18" width="5.1" height="14.1" rx="2.6" fill="#fff"/><rect x="114.7" y="15.4" width="5.1" height="14.1" rx="2.6" fill="#fff"/><path d="m13 7.1 1.3-.4c1.2 0 1.8 1.6 1.8 4.7l1.6 12 .2.2 6-2.2c.8 0 1.2.6 1.3 1.8 0 1-2.2 2-6.6 3.3l-.2.1v.2c0 .7 1.1 4.5 3.4 11.4v.1c0 .7-.5 1.2-1.6 1.7-1 0-1.6-1.2-2-3.6-.8-1.7-1.7-4.6-2.9-8.6h-.2c-4.5 1-6.8 1.7-6.8 2.4-2.5 5.4-4.4 8.1-5.7 8.1-.7 0-1.1-.5-1.3-1.4 0-.8 1-2.5 2.8-4.9l.8-1.8H3.6l-1 .2c-1.2-.3-1.9-1-1.9-2 .5-1.2 1.3-1.8 2.3-1.8l1.3.5c2 0 3-.7 3-2.1C9 20.8 10.8 14.9 13 7.1Zm.5 9.5-3 9.2c2.8-.5 4.2-1 4.2-1.6-.5-5-1-7.6-1.2-7.6ZM33.5 20.5c3 .2 4.4 1.7 4.4 4.3l.1.7v8c0 1 .5 2.3 1.5 3.9-.2 1-.7 1.6-1.5 1.6-2.1-1-3.2-2.8-3.2-5.7v-.7l-.1-.1.1-.2v-.1L35 25c0-1-.5-1.5-1.3-1.5H33c-1.7.7-2.6 4.5-2.6 11.4 0 2.4-.6 3.6-1.8 3.6-1 0-1.4-.6-1.4-1.8v-5.2c0-6.7.6-10 1.7-10l.6-.2 1 .1c1-.6 2-1 3-1ZM47.3 6.4c1 .2 1.5.7 1.5 1.5l-.3 2.3v.7c0 1.5.1 3 .5 4.8a39 39 0 0 1 7.6-1.8c1 .2 1.5.8 1.5 1.5 0 1.2-1.2 1.7-3.6 1.7l-5.4 2c0 4.7.5 11 1.5 19-.2 1-.7 1.5-1.5 1.5H49c-1.2 0-1.8-1.6-1.8-4.7A130 130 0 0 1 46 19.7h-1c-3.2-.2-4.8-1-4.8-2.2 0-.4.4-.9 1-1.4h.6l2.4.6h1.7l-.5-6.5c0-2.5.6-3.8 2-3.8ZM60.3 11c1.3.2 2 .8 2 1.7-.4 1-1 1.4-1.7 1.4-1.3-.2-2-.9-2-1.9.4-.9 1-1.3 1.7-1.3Zm2 7.2c.5 0 1 .5 1.4 1.5l-.5 3.7v2.4c0 2.9.5 6.6 1.5 11.2-.4.7-1 1-1.8 1-1.4 0-2.4-4.2-2.8-12.5v-1.8c0-3.7.7-5.5 2.2-5.5ZM79.6 9.5c.5 0 1 .5 1.6 1.6l-2.3 14.5v4c0 4.3.6 6.4 2 6.4.8.4 1.3 1 1.3 1.6 0 .8-.7 1.3-2.1 1.4-1.6 0-2.7-1.4-3.6-4.2H76C74.7 37.6 73 39 71.3 39c-2.2 0-3.5-1.6-4-4.8 0-3.8 2.6-7.8 7.7-12 1 0 1.5-1.5 1.5-4.3.7-5.6 1.8-8.4 3-8.4Zm-9.1 24.2v1.4l.8.9h.3c1.1 0 2.4-3.4 3.9-10h-.3c-3.2 3-4.7 5.7-4.7 7.7ZM149.1 6.4c1 .2 1.5.7 1.5 1.5l-.3 2.3v.7c0 1.5.1 3 .5 4.8a39 39 0 0 1 7.6-1.8c1 .2 1.5.8 1.5 1.5 0 1.2-1.2 1.7-3.6 1.7l-5.4 2c0 4.7.5 11 1.5 19-.2 1-.7 1.5-1.5 1.5h-.1c-1.2 0-1.8-1.6-1.8-4.7a130 130 0 0 1-1.2-15.2h-1c-3.2-.2-4.8-1-4.8-2.2 0-.4.4-.9 1-1.4h.6l2.4.6h1.7l-.5-6.5c0-2.5.6-3.8 2-3.8ZM166.2 19.3c1.3 0 3.7 2.5 7 7.3v.9c0 1-2.3 1.7-7 2.2l-.2.2v.2c.7 3.1 1.5 4.7 2.3 4.7h.6c1.1 0 2.8-1.2 5-3.6h.4c.7 0 1.2.5 1.6 1.5 0 .8-1.5 2.3-4.4 4.3-.8.5-1.7.8-2.7 1-2.9 0-4.8-2.6-6-7.9-1.5-.2-2.3-1-2.3-2 0-.7.6-1.2 1.8-1.5v.2l.5-.2v-1.3c0-4 1.1-6 3.4-6Zm.3 3.8h-.5l-.2 1.9v1.6h.2c2 0 3-.3 3-.6-1-1.4-1.8-2.3-2.5-3Z" fill="#fff"/></svg>
